app/dist/common/images/nib-holdings-limited.svg

<svg height="18" viewBox="0 0 18 18" width="18" xmlns="http://www.w3.org/2000/svg"><path d="m0 0h18v18h-18z" fill="#144b36"/><path d="m4.83 11.85 1.97-1.85h-2.8v-2h6v6h-2v-2.8l-1.84 1.98zm8.23-.09-1.51-1.51h-1.3v1.3l1.51 1.51zm.94-1.76h-2.1l-.9-1 .9-1h2.1zm-.94-3.76-1.51 1.51h-1.3v-1.3l1.51-1.51zm-5.06-2.24v2.1l1 .9 1-.9v-2.1zm-3.06 2.24 1.5 1.51h1.31v-1.3l-1.5-1.51z" fill="#82e578"/></svg>

<!-- by TradingView --><svg xmlns="http://www.w3.org/2000/svg" width="18" height="18" viewBox="0 0 18 18"><path fill="#144B36" d="M0 0h18v18H0z"/><path d="M4.83 11.85 6.8 10H4V8h6v6H8v-2.8l-1.84 1.98-1.33-1.33ZM13.06 11.76l-1.51-1.51h-1.3v1.3l1.51 1.51 1.3-1.3ZM14 10h-2.1L11 9l.9-1H14v2ZM13.06 6.24l-1.51 1.51h-1.3v-1.3l1.51-1.51 1.3 1.3ZM8 4v2.1L9 7l1-.9V4H8ZM4.94 6.24l1.5 1.51h1.31v-1.3l-1.5-1.51-1.31 1.3Z" fill="#82E578"/></svg>
